Numix/32/mimetypes/image-x-canon-cr2.svg

<?xml version="1.0" encoding="UTF-8" standalone="no"?>
<svg
   xmlns:dc="http://purl.org/dc/elements/1.1/"
   xmlns:cc="http://creativecommons.org/ns#"
   xmlns:rdf="http://www.w3.org/1999/02/22-rdf-syntax-ns#"
   xmlns:svg="http://www.w3.org/2000/svg"
   xmlns="http://www.w3.org/2000/svg"
   xmlns:sodipodi="http://sodipodi.sourceforge.net/DTD/sodipodi-0.dtd"
   xmlns:inkscape="http://www.inkscape.org/namespaces/inkscape"
   width="32"
   height="32"
   viewBox="0 0 32 32"
   id="svg2"
   version="1.1"
   inkscape:version="0.91 r13725"
   sodipodi:docname="image-x-canon-cr2.svg">
  <metadata
     id="metadata16">
    <rdf:RDF>
      <cc:Work
         rdf:about="">
        <dc:format>image/svg+xml</dc:format>
        <dc:type
           rdf:resource="http://purl.org/dc/dcmitype/StillImage" />
        <dc:title />
      </cc:Work>
    </rdf:RDF>
  </metadata>
  <defs
     id="defs14">
    <clipPath
       id="clipPath-258929573">
      <g
         transform="translate(0,-1004.3622)"
         id="g17">
        <path
           inkscape:connector-curvature="0"
           d="m -24,13 c 0,1.105 -0.672,2 -1.5,2 -0.828,0 -1.5,-0.895 -1.5,-2 0,-1.105 0.672,-2 1.5,-2 0.828,0 1.5,0.895 1.5,2 z"
           transform="matrix(15.333333,0,0,11.5,414.99999,878.8622)"
           style="fill:#1890d0"
           id="path19" />
      </g>
    </clipPath>
    <clipPath
       id="clipPath-258929573-6">
      <g
         transform="translate(0,-1004.3622)"
         id="g17-9">
        <path
           inkscape:connector-curvature="0"
           d="m -24,13 c 0,1.105 -0.672,2 -1.5,2 -0.828,0 -1.5,-0.895 -1.5,-2 0,-1.105 0.672,-2 1.5,-2 0.828,0 1.5,0.895 1.5,2 z"
           transform="matrix(15.333333,0,0,11.5,414.99999,878.8622)"
           style="fill:#1890d0"
           id="path19-2" />
      </g>
    </clipPath>
    <clipPath
       id="clipPath-258929573-63">
      <g
         transform="translate(0,-1004.3622)"
         id="g17-8">
        <path
           inkscape:connector-curvature="0"
           d="m -24,13 c 0,1.105 -0.672,2 -1.5,2 -0.828,0 -1.5,-0.895 -1.5,-2 0,-1.105 0.672,-2 1.5,-2 0.828,0 1.5,0.895 1.5,2 z"
           transform="matrix(15.333333,0,0,11.5,414.99999,878.8622)"
           style="fill:#1890d0"
           id="path19-25" />
      </g>
    </clipPath>
  </defs>
  <sodipodi:namedview
     pagecolor="#ffffff"
     bordercolor="#666666"
     borderopacity="1"
     objecttolerance="10"
     gridtolerance="10"
     guidetolerance="10"
     inkscape:pageopacity="0"
     inkscape:pageshadow="2"
     inkscape:window-width="1920"
     inkscape:window-height="1013"
     id="namedview12"
     showgrid="true"
     inkscape:zoom="16"
     inkscape:cx="8.8190355"
     inkscape:cy="18.801465"
     inkscape:window-x="0"
     inkscape:window-y="27"
     inkscape:window-maximized="1"
     inkscape:current-layer="svg2">
    <inkscape:grid
       type="xygrid"
       id="grid3004" />
  </sodipodi:namedview>
  <path
     style="fill:#38a34e;fill-opacity:1"
     d="M 5.335888,2.97e-4 C 4.648414,3.12e-4 4,0.676788 4,1.394031 L 4,30.606268 C 4,31.282757 4.687474,32 5.335888,32 l 21.327332,0 c 0.648414,0 1.335888,-0.717243 1.335888,-1.393732 L 28,8.9999999 19,0 z"
     id="path4-1"
     inkscape:connector-curvature="0"
     sodipodi:nodetypes="ssssssccs" />
  <path
     style="fill:#000000;fill-opacity:0.19599998"
     d="M 21,8.9999999 28,16 28,8.9999999 z"
     id="path6-4"
     inkscape:connector-curvature="0"
     sodipodi:nodetypes="cccc" />
  <path
     style="fill:#ffffff;fill-opacity:0.39200003"
     d="m 19.000306,2.97e-4 8.991594,8.9997029 -7.613262,0 c -0.672951,0 -1.378332,-0.7134896 -1.378332,-1.3864402 z"
     id="path8-6"
     inkscape:connector-curvature="0"
     sodipodi:nodetypes="ccssc" />
  <path
     style="fill:#000000;fill-opacity:0.19599998"
     d="m 4,24 0,6.667969 C 4,31.316407 4.6875,32 5.3320311,32 L 26.667969,32 C 27.3125,32 28,31.316407 28,30.667969 L 28,24 Z"
     id="path3011"
     inkscape:connector-curvature="0" />
  <path
     inkscape:connector-curvature="0"
     id="path4194"
     style="font-style:normal;font-variant:normal;font-weight:bold;font-stretch:normal;font-size:medium;line-height:125%;font-family:'Ubuntu Mono';-inkscape-font-specification:'Ubuntu Mono, Bold';text-align:start;letter-spacing:0px;word-spacing:0px;writing-mode:lr-tb;text-anchor:start;fill:#ffffff;fill-opacity:1;stroke:none;stroke-width:1px;stroke-linecap:butt;stroke-linejoin:miter;stroke-opacity:1"
     d="M 11.434389,31 C 10.644042,31 10.040724,30.739938 9.6244344,30.219814 9.2081448,29.69969 9,28.959752 9,28 9,27.52322 9.0633484,27.099071 9.1900452,26.727554 9.3167421,26.356037 9.4917044,26.043344 9.7149321,25.789474 9.9441934,25.529412 10.21267,25.334365 10.520362,25.204334 10.834087,25.068111 11.174962,25 11.542986,25 c 0.199095,0 0.377074,0.01858 0.533937,0.05573 0.162896,0.03097 0.304676,0.06812 0.425339,0.111456 0.120664,0.04334 0.220212,0.08978 0.298643,0.139318 l 0.190045,0.111456 -0.289593,0.910216 c -0.138763,-0.09288 -0.307692,-0.17028 -0.506787,-0.232199 -0.193062,-0.06811 -0.553394,-0.102167 -0.806787,-0.102167 -0.174963,0 -0.346908,0.03406 -0.515837,0.102167 -0.162896,0.06192 -0.310709,0.170279 -0.443439,0.325078 C 10.30181,26.569662 10.19623,26.7709 10.111765,27.02477 10.033335,27.27864 10,27.622291 10,28 c 0,0.656347 0.102715,1.133129 0.319909,1.48607 C 10.543137,29.832819 10.905128,30 11.405882,30 c 0.289593,0 0.665008,-0.02787 0.852037,-0.09597 0.193061,-0.06811 0.346907,-0.136223 0.461538,-0.204335 L 13,30.600621 c -0.156863,0.09907 -0.371041,0.191951 -0.642534,0.278638 C 12.092006,30.959753 11.784314,31 11.434389,31 Z"
     sodipodi:nodetypes="ssssccsccccccscccscsccccs" />
  <path
     inkscape:connector-curvature="0"
     id="path4198"
     style="font-style:normal;font-variant:normal;font-weight:bold;font-stretch:normal;font-size:medium;line-height:125%;font-family:'Ubuntu Mono';-inkscape-font-specification:'Ubuntu Mono, Bold';text-align:start;letter-spacing:0px;word-spacing:0px;writing-mode:lr-tb;text-anchor:start;fill:#ffffff;fill-opacity:1;stroke:none;stroke-width:1px;stroke-linecap:butt;stroke-linejoin:miter;stroke-opacity:1"
     d="m 22.99752,26.677725 c 0,0.202212 -0.03819,0.398105 -0.114559,0.587678 -0.51888,1.038796 -1.506478,1.720359 -2.326921,2.454976 -0.06365,0.113744 -0.09547,0.218009 -0.09547,0.312796 l 2.539383,0 0,0.966825 L 19,31 c 0,0 0.110307,-1 0.25,-1.3 0.658317,-1.057783 2.074224,-1.413982 2.75,-2.936967 0,-0.240126 -0.03355,-0.42338 -0.179936,-0.549763 C 21.673684,26.080569 21.489117,26 21.266364,26 c -0.184567,0 -0.878932,0.05845 -1.082591,0.146919 -0.20366,0.08847 -0.404138,0.236967 -0.601433,0.445498 L 19,25.777251 c 0.254575,-0.265403 0.547336,-0.461295 0.878283,-0.587678 C 20.215594,25.063191 20.549724,25 20.880671,25 c 0.241846,0 0.739009,0.03476 0.961763,0.104265 0.512839,0.121648 0.853835,0.326936 1.002389,0.843602 C 22.946652,26.156398 23,26.399684 23,26.677725 Z"
     sodipodi:nodetypes="ccccccccccsscccscccc" />
  <path
     inkscape:connector-curvature="0"
     id="path4267"
     style="font-style:normal;font-variant:normal;font-weight:bold;font-stretch:normal;font-size:medium;line-height:125%;font-family:'Ubuntu Mono';-inkscape-font-specification:'Ubuntu Mono, Bold';text-align:start;letter-spacing:0px;word-spacing:0px;writing-mode:lr-tb;text-anchor:start;fill:#ffffff;fill-opacity:1;stroke:none;stroke-width:1px;stroke-linecap:butt;stroke-linejoin:miter;stroke-opacity:1"
     d="m 15.871138,25.000012 c 0.324904,0 0.619158,0.03834 0.882759,0.115016 0.2636,0.07668 0.49042,0.194887 0.68046,0.354631 0.190037,0.159745 0.334099,0.364217 0.432183,0.613418 C 17.970755,26.325888 18,26.667732 18,27 18,27.345047 17.95543,27.75878 17.820563,28.039929 17.685697,28.321079 17.312644,28.353036 17,28.5 c 0.539368,0.928385 0.761038,1.5 1,2.5 l -1,0 c -0.249835,-0.760014 -0.611911,-1.442856 -1,-2 l -1,0 0,2 -1,0 0,-5.846634 c 0.110345,-0.02556 0.229885,-0.04792 0.358621,-0.06709 0.134866,-0.02556 0.269732,-0.04154 0.404597,-0.04793 0.134866,-0.01278 0.263602,-0.02236 0.386207,-0.02875 C 15.27203,25.003199 15.779184,25 15.871138,25 Z M 16.875,26.125 C 16.691092,25.978035 16.171521,26 15.871138,26 L 15,26 l 0,2 0.37931,0 c 0.386207,0 1.324043,0.02836 1.49569,-0.125 C 17.046647,27.715256 17,27.287539 17,27 c 0,-0.352278 0.01709,-0.659036 -0.125,-0.875 z"
     sodipodi:nodetypes="csscsscccccccccccccccccsccc" />
  <g
     transform="matrix(0.40082111,0,0,0.40065477,6.3788233,6.3732701)"
     style="fill:#ffffff;fill-opacity:1"
     id="g59">
    <g
       id="g61"
       clip-path="url(#clipPath-258929573-63)"
       style="fill:#ffffff">
      <!-- color: #3d3d3d -->
      <g
         id="g63"
         style="fill:#ffffff">
        <path
           style="fill:#ffffff;fill-rule:nonzero;stroke:none"
           d="m 16.089844,10.007812 c -1.647385,0.02317 -3.248499,0.700118 -4.390625,1.935547 l 2.873047,2.886719 1.517578,-4.822266 z m 1.470703,0.31836 -1.179688,3.759766 3.197266,-0.53711 1.808594,-0.351562 c -0.806312,-1.417159 -2.181368,-2.470118 -3.826172,-2.871094 z m -6.859375,2.740234 c -0.7320031,1.377377 -0.9077695,3.006727 -0.427734,4.53711 l 4.134765,-0.675782 -0.652344,-0.792968 -3.054687,-3.06836 z m 11.113281,1.626953 -3.806641,0.638672 3.181641,3.779297 c 0.768227,-1.324374 1.009221,-2.907602 0.625,-4.417969 z m -4.236328,2.458985 -1.816406,4.333984 -0.205078,0.507813 c 1.698131,0.0725 3.373185,-0.573608 4.58789,-1.794922 l -2.566406,-3.046875 z m -2.097656,1.121094 -4.714844,0.769531 c 0.763067,1.193862 1.939817,2.098057 3.333984,2.523437 l 1.38086,-3.292968 z"
           transform="matrix(2.4970249,0,0,2.4976141,-15.947859,-15.944531)"
           id="path65"
           inkscape:connector-curvature="0" />
      </g>
    </g>
  </g>
</svg>

<svg xmlns="http://www.w3.org/2000/svg" viewBox="0 0 32 32">
 <defs>
  
 </defs>
 <path d="m 5.336 0 c -0.687 0 -1.336 0.676 -1.336 1.394 l 0 29.21 c 0 0.676 0.687 1.394 1.336 1.394 l 21.327 0 c 0.648 0 1.336 -0.717 1.336 -1.394 l 0.001 -21.606 -9 -9 z" style="fill:#38a34e;fill-opacity:1"/>
 <path d="m 21 9 7 7 0 -7 z" style="fill:#000;fill-opacity:0.196"/>
 <path d="m 19 0 8.992 9 -7.613 0 c -0.673 0 -1.378 -0.713 -1.378 -1.386 z" style="fill:#fff;fill-opacity:0.392"/>
 <path d="m 4 24 0 6.668 c 0 0.648 0.688 1.332 1.332 1.332 l 21.336 0 c 0.645 0 1.332 -0.684 1.332 -1.332 l 0 -6.668" style="fill:#000;fill-opacity:0.196"/>
 <path d="m 11.434 31 c -0.79 0 -1.394 -0.26 -1.81 -0.78 -0.416 -0.52 -0.624 -1.26 -0.624 -2.22 0 -0.477 0.063 -0.901 0.19 -1.272 0.127 -0.372 0.302 -0.684 0.525 -0.938 0.229 -0.26 0.498 -0.455 0.805 -0.585 0.314 -0.136 0.655 -0.204 1.023 -0.204 c 0.199 0 0.377 0.019 0.534 0.056 0.163 0.031 0.305 0.068 0.425 0.111 0.121 0.043 0.22 0.09 0.299 0.139 l 0.19 0.111 -0.29 0.91 c -0.139 -0.093 -0.308 -0.17 -0.507 -0.232 -0.193 -0.068 -0.553 -0.102 -0.807 -0.102 -0.175 0 -0.347 0.034 -0.516 0.102 -0.163 0.062 -0.311 0.17 -0.443 0.325 c -0.127 0.149 -0.232 0.35 -0.317 0.604 -0.078 0.254 -0.112 0.598 -0.112 0.975 c 0 0.656 0.103 1.133 0.32 1.486 c 0.223 0.347 0.585 0.514 1.086 0.514 c 0.29 0 0.665 -0.028 0.852 -0.096 0.193 -0.068 0.347 -0.136 0.462 -0.204 l 0.281 0.901 c -0.157 0.099 -0.371 0.192 -0.643 0.279 c -0.265 0.08 -0.573 0.121 -0.923 0.121" style="fill:#fff;fill-opacity:1;stroke:none"/>
 <path d="m 22.998 26.678 c 0 0.202 -0.038 0.398 -0.115 0.588 -0.519 1.039 -1.506 1.72 -2.327 2.455 -0.064 0.114 -0.095 0.218 -0.095 0.313 l 2.539 0 0 0.967 l -4 0 c 0 0 0.11 -1 0.25 -1.3 0.658 -1.058 2.074 -1.414 2.75 -2.937 0 -0.24 -0.034 -0.423 -0.18 -0.55 c -0.146 -0.133 -0.331 -0.213 -0.554 -0.213 c -0.185 0 -0.879 0.058 -1.083 0.147 -0.204 0.088 -0.404 0.237 -0.601 0.445 l -0.582 -0.815 c 0.255 -0.265 0.547 -0.461 0.878 -0.588 c 0.337 -0.126 0.671 -0.19 1 -0.19 c 0.242 0 0.739 0.035 0.962 0.104 0.513 0.122 0.854 0.327 1 0.844 c 0.102 0.209 0.155 0.452 0.155 0.73" style="fill:#fff;fill-opacity:1;stroke:none"/>
 <path d="m 15.871 25 c 0.325 0 0.619 0.038 0.883 0.115 0.264 0.077 0.49 0.195 0.68 0.355 0.19 0.16 0.334 0.364 0.432 0.613 c 0.104 0.243 0.133 0.585 0.133 0.917 0 0.345 -0.045 0.759 -0.179 1.04 -0.135 0.281 -0.508 0.313 -0.821 0.46 c 0.539 0.928 0.761 1.5 1 2.5 l -1 0 c -0.25 -0.76 -0.612 -1.443 -1 -2 l -1 0 0 2 -1 0 0 -5.847 c 0.11 -0.026 0.23 -0.048 0.359 -0.067 0.135 -0.026 0.27 -0.042 0.405 -0.048 0.135 -0.013 0.264 -0.022 0.386 -0.029 c 0.123 -0.006 0.63 -0.01 0.722 -0.01 m 1 1.125 c -0.184 -0.147 -0.703 -0.125 -1 -0.125 l -0.871 0 l 0 2 0.379 0 c 0.386 0 1.324 0.028 1.496 -0.125 c 0.172 -0.16 0.125 -0.587 0.125 -0.875 c 0 -0.352 0.017 -0.659 -0.125 -0.875 z" style="fill:#fff;fill-opacity:1;stroke:none"/>
 <g transform="matrix(0.40082111,0,0,0.40065477,6.3788233,6.3732701)" style="fill:#fff;fill-opacity:1">
  <g style="clip-path:url(#clipPath-258929573-63);fill:#fff">
   <!-- color: #3d3d3d -->
   <g style="fill:#fff">
    <path d="m 16.09 10.01 c -1.647 0.023 -3.248 0.7 -4.391 1.936 l 2.873 2.887 1.518 -4.822 z m 1.471 0.318 -1.18 3.76 3.197 -0.537 1.809 -0.352 c -0.806 -1.417 -2.181 -2.47 -3.826 -2.871 z m -6.859 2.74 c -0.732 1.377 -0.908 3.01 -0.428 4.537 l 4.135 -0.676 -0.652 -0.793 -3.055 -3.068 z m 11.11 1.627 -3.807 0.639 3.182 3.779 c 0.768 -1.324 1.01 -2.908 0.625 -4.418 z m -4.236 2.459 -1.816 4.334 -0.205 0.508 c 1.698 0.073 3.373 -0.574 4.588 -1.795 l -2.566 -3.047 z m -2.098 1.121 -4.715 0.77 c 0.763 1.194 1.94 2.098 3.334 2.523 l 1.381 -3.293 z" transform="matrix(2.4970249,0,0,2.4976141,-15.947859,-15.944531)" style="fill:#fff;stroke:none;fill-rule:nonzero"/>
   </g>
  </g>
 </g>
</svg>
